svgs/regular/bold.svg

<svg xmlns="http://www.w3.org/2000/svg" viewBox="0 0 384 512"><!--! Font Awesome Pro 6.6.0 by @fontawesome - https://fontawesome.com License - https://fontawesome.com/license (Commercial License) Copyright 2024 Fonticons, Inc. --><path d="M0 56C0 42.7 10.7 32 24 32l48 0 16 0 124 0c68.5 0 124 55.5 124 124c0 34.7-14.3 66.2-37.3 88.7C339.7 264.9 368 307.1 368 356c0 68.5-55.5 124-124 124L88 480l-16 0-48 0c-13.3 0-24-10.7-24-24s10.7-24 24-24l24 0 0-176L48 80 24 80C10.7 80 0 69.3 0 56zM212 232c42 0 76-34 76-76s-34-76-76-76L96 80l0 152 116 0zM96 280l0 152 148 0c42 0 76-34 76-76s-34-76-76-76l-32 0L96 280z"/></svg>

<svg xmlns="http://www.w3.org/2000/svg" viewBox="0 0 384 512"><!--! Font Awesome Pro 6.5.2 by @fontawesome - https://fontawesome.com License - https://fontawesome.com/license (Commercial License) Copyright 2024 Fonticons, Inc. --><path d="M0 56C0 42.7 10.7 32 24 32H72 88 212c68.5 0 124 55.5 124 124c0 34.7-14.3 66.2-37.3 88.7C339.7 264.9 368 307.1 368 356c0 68.5-55.5 124-124 124H88 72 24c-13.3 0-24-10.7-24-24s10.7-24 24-24H48V256 80H24C10.7 80 0 69.3 0 56zM212 232c42 0 76-34 76-76s-34-76-76-76H96V232H212zM96 280V432H244c42 0 76-34 76-76s-34-76-76-76H212 96z"/></svg>
